icons/template/link.svg

<svg id="SvgjsSvg1030" width="288" height="288" xmlns="http://www.w3.org/2000/svg" version="1.1" xmlns:xlink="http://www.w3.org/1999/xlink" xmlns:svgjs="http://svgjs.com/svgjs"><defs id="SvgjsDefs1031"></defs><g id="SvgjsG1032"><svg xmlns="http://www.w3.org/2000/svg" fill="none" viewBox="0 0 24 24" width="288" height="288"><path fill="#6246ea" d="M14.8284 12l1.4142 1.4142 2.8284-2.8284c1.5621-1.56215 1.5621-4.09481 0-5.6569-1.562-1.5621-4.0947-1.5621-5.6568 0l-2.8284 2.82842L12 9.17154l2.8284-2.82843c.7811-.78105 2.0474-.78105 2.8284 0 .7811.78105.7811 2.04738 0 2.82843L14.8284 12zM12 14.8285l1.4142 1.4142-2.8284 2.8284c-1.56208 1.5621-4.09474 1.5621-5.65684 0s-1.5621-4.0947 0-5.6568l2.82843-2.8285L9.1716 12l-2.82843 2.8285c-.78105.781-.78105 2.0473 0 2.8284.78105.781 2.04738.781 2.82843 0L12 14.8285z" class="colorcurrentColor svgShape"></path><path fill="#6246ea" d="M14.8285 10.5857c.3905-.3905.3905-1.02371 0-1.41423-.3906-.39053-1.0237-.39053-1.4143 0L9.1716 13.4141c-.39053.3905-.39053 1.0237 0 1.4142.39052.3905 1.0237.3905 1.4142 0l4.2427-4.2426z" class="colorcurrentColor svgShape"></path></svg></g></svg>

<svg
  width="24"
  height="24"
  viewBox="0 0 24 24"
  fill="none"
  xmlns="http://www.w3.org/2000/svg"
>
  <path
    d="M14.8284 12L16.2426 13.4142L19.071 10.5858C20.6331 9.02365 20.6331 6.49099 19.071 4.9289C17.509 3.3668 14.9763 3.3668 13.4142 4.9289L10.5858 7.75732L12 9.17154L14.8284 6.34311C15.6095 5.56206 16.8758 5.56206 17.6568 6.34311C18.4379 7.12416 18.4379 8.39049 17.6568 9.17154L14.8284 12Z"
    fill="currentColor"
  />
  <path
    d="M12 14.8285L13.4142 16.2427L10.5858 19.0711C9.02372 20.6332 6.49106 20.6332 4.92896 19.0711C3.36686 17.509 3.36686 14.9764 4.92896 13.4143L7.75739 10.5858L9.1716 12L6.34317 14.8285C5.56212 15.6095 5.56212 16.8758 6.34317 17.6569C7.12422 18.4379 8.39055 18.4379 9.1716 17.6569L12 14.8285Z"
    fill="currentColor"
  />
  <path
    d="M14.8285 10.5857C15.219 10.1952 15.219 9.56199 14.8285 9.17147C14.4379 8.78094 13.8048 8.78094 13.4142 9.17147L9.1716 13.4141C8.78107 13.8046 8.78107 14.4378 9.1716 14.8283C9.56212 15.2188 10.1953 15.2188 10.5858 14.8283L14.8285 10.5857Z"
    fill="currentColor"
  />
</svg>
